!!!OTL: ES WAREN ZWEI KOENIGSKINDER
!!!ARE: Europa, Mitteleuropa, Deutschland
!!!SCT: E0084
!!!YEM: Copyright 1995, estate of Helmut Schaffrath.
**kern
*ICvox
*Ivox
*M4/4
*k[f#]
*G:
{4d
=1
4b
8b
8b
4b
4a
=2
4.a
8g
4g}
{4d
=3
4cc
8cc
8cc
8cc
8b
8dd
8b
=4
2a
4r}
{4d
=5
4dd
8dd
8ee
8dd
8cc
8cc
8cc
=6
2b
8dd
8cc}
{8b
8a
=7
4g
8g
8g
8b
8a
4a
=8
2g}
{2a
=9
4b
8b
8b
8dd
8cc
4a
=10
2g
4r}
==
!!!AGN: erzaehlendes Volks - Lied, Sage, Liebe, Leid, Tod, Ballade ?
!!!ONB: ESAC (Essen Associative Code) Database: ERK1
!!!AMT: simple quadruple
!!!AIN: vox
!!!EED: Helmut Schaffrath
!!!EEV: 1.0
*-
